icons/midnadark/apps/48/nylas.svg

<svg xmlns="http://www.w3.org/2000/svg" viewBox="0 0 48 48"><defs><linearGradient gradientUnits="userSpaceOnUse" y2="517.8" x2="0" y1="545.8"><stop stop-color="#3889e9"/><stop offset="1" stop-color="#5ea5fb"/></linearGradient><linearGradient y2="518.14" x2="0" y1="545.14" gradientUnits="userSpaceOnUse" id="0"><stop stop-color="#197ff1"/><stop offset="1" stop-color="#21c6fb"/></linearGradient></defs><g transform="matrix(.99999 0 0 .99999-38.37 25.882)" enable-background="new"><g transform="matrix(1.71429 0 0 1.71429-624.32-913.53)"><circle r="14" cy="531.8" cx="400.57" fill="url(#0)"/><circle cx="400.57" cy="531.8" r="14" fill="#5ea5fb" fill-opacity="0"/></g><path d="m531 753.02v-32.607-43.3l256-160.65v120.01l-256 160.65v-44.1m-244.36 33.981c-26.09 0-47.643-22.19-47.643-48.28v-38.755l260-162.43v122.84l-203.39 126.63h-8.97m-47.643-248.16l260-162.43v124.75l-260 162.43v-124.75m292-20.942l256-160.65v122.84l-256 160.65v-122.84m-292-134.46l260-162.43v47.986 32.607 38.432l-260 162.43v-119.02m292-26.663l194.14-121.77h15.424c26.09 0 46.43 22.19 46.43 48.29v37.581l-256 160.65v-124.75" fill="#fff" fill-opacity=".851" transform="matrix(.0486 0 0-.0486 37.443 23.866)"/></g></svg>

<?xml version="1.0" encoding="UTF-8" standalone="no"?>
<!-- Created with Inkscape (http://www.inkscape.org/) -->

<svg
   xmlns:dc="http://purl.org/dc/elements/1.1/"
   xmlns:cc="http://creativecommons.org/ns#"
   xmlns:rdf="http://www.w3.org/1999/02/22-rdf-syntax-ns#"
   xmlns:svg="http://www.w3.org/2000/svg"
   xmlns="http://www.w3.org/2000/svg"
   xmlns:xlink="http://www.w3.org/1999/xlink"
   xmlns:sodipodi="http://sodipodi.sourceforge.net/DTD/sodipodi-0.dtd"
   xmlns:inkscape="http://www.inkscape.org/namespaces/inkscape"
   width="48"
   height="48"
   id="svg5453"
   version="1.1"
   inkscape:version="0.91 r13725"
   sodipodi:docname="nylas.svg">
  <defs
     id="defs5455">
    <linearGradient
       id="linearGradient4422">
      <stop
         id="stop4424"
         offset="0"
         style="stop-color:#197ff1;stop-opacity:1" />
      <stop
         id="stop4426"
         offset="1"
         style="stop-color:#21c6fb;stop-opacity:1" />
    </linearGradient>
    <linearGradient
       id="linearGradient4232">
      <stop
         style="stop-color:#3889e9;stop-opacity:1"
         offset="0"
         id="stop4234-0" />
      <stop
         style="stop-color:#5ea5fb;stop-opacity:1"
         offset="1"
         id="stop4236" />
    </linearGradient>
    <linearGradient
       gradientUnits="userSpaceOnUse"
       y2="517.79797"
       x2="399.57144"
       y1="545.79797"
       x1="399.57144"
       id="linearGradient3426"
       xlink:href="#linearGradient4232"
       inkscape:collect="always" />
    <linearGradient
       y2="518.13873"
       x2="399.9939"
       y1="545.13873"
       x1="399.9939"
       gradientUnits="userSpaceOnUse"
       id="linearGradient4181"
       xlink:href="#linearGradient4422"
       inkscape:collect="always" />
  </defs>
  <sodipodi:namedview
     id="base"
     pagecolor="#ffffff"
     bordercolor="#666666"
     borderopacity="1.0"
     inkscape:pageopacity="0"
     inkscape:pageshadow="2"
     inkscape:zoom="4"
     inkscape:cx="6.5"
     inkscape:cy="15.968792"
     inkscape:document-units="px"
     inkscape:current-layer="g4238"
     showgrid="true"
     fit-margin-top="0"
     fit-margin-left="0"
     fit-margin-right="0"
     fit-margin-bottom="0"
     inkscape:window-width="1366"
     inkscape:window-height="685"
     inkscape:window-x="0"
     inkscape:window-y="0"
     inkscape:window-maximized="1"
     inkscape:showpageshadow="false"
     borderlayer="true"
     showguides="false">
    <inkscape:grid
       type="xygrid"
       id="grid4063" />
    <sodipodi:guide
       position="1.1650391e-05,32.000026"
       orientation="32,0"
       id="guide4157" />
    <sodipodi:guide
       position="1.1650391e-05,2.6367188e-05"
       orientation="0,32"
       id="guide4159" />
    <sodipodi:guide
       position="32.000012,2.6367188e-05"
       orientation="-32,0"
       id="guide4161" />
    <sodipodi:guide
       position="32.000012,32.000026"
       orientation="0,-32"
       id="guide4163" />
    <sodipodi:guide
       position="2.0000117,30.000026"
       orientation="28,0"
       id="guide4167" />
    <sodipodi:guide
       position="2.0000117,2.0000264"
       orientation="0,28"
       id="guide4169" />
    <sodipodi:guide
       position="30.000012,2.0000264"
       orientation="-28,0"
       id="guide4171" />
    <sodipodi:guide
       position="30.000012,30.000026"
       orientation="0,-28"
       id="guide4173" />
    <sodipodi:guide
       position="2.0000117,30.000026"
       orientation="28,0"
       id="guide4181" />
    <sodipodi:guide
       position="2.0000117,2.0000264"
       orientation="0,14"
       id="guide4183" />
    <sodipodi:guide
       position="16.000012,2.0000264"
       orientation="-28,0"
       id="guide4185" />
    <sodipodi:guide
       position="16.000012,30.000026"
       orientation="0,-14"
       id="guide4187" />
    <sodipodi:guide
       position="9.0000117,23.000026"
       orientation="14,0"
       id="guide4193" />
    <sodipodi:guide
       position="9.0000117,9.0000264"
       orientation="0,14.000031"
       id="guide4195" />
    <sodipodi:guide
       position="23.000042,9.0000264"
       orientation="-14,0"
       id="guide4197" />
    <sodipodi:guide
       position="23.000042,23.000026"
       orientation="0,-14.000031"
       id="guide4199" />
  </sodipodi:namedview>
  <metadata
     id="metadata5458">
    <rdf:RDF>
      <cc:Work
         rdf:about="">
        <dc:format>image/svg+xml</dc:format>
        <dc:type
           rdf:resource="http://purl.org/dc/dcmitype/StillImage" />
        <dc:title></dc:title>
      </cc:Work>
    </rdf:RDF>
  </metadata>
  <g
     inkscape:label="Capa 1"
     inkscape:groupmode="layer"
     id="layer1"
     transform="translate(-384.57143,-499.798)">
    <g
       style="display:inline;enable-background:new"
       id="g4238"
       transform="translate(225.81911,462.44565)">
      <g
         style="display:inline"
         id="layer1-8"
         transform="matrix(0.22655187,0,0,0.22655187,106.94841,54.31088)">
        <g
           style="display:none"
           id="layer6" />
        <g
           id="g4027" />
        <g
           id="g4061" />
        <g
           id="g3751" />
        <g
           id="g3782" />
        <g
           id="g3725" />
        <g
           id="g4370"
           transform="matrix(4.4140002,0,0,4.4140002,59.275211,39.357303)">
          <g
             id="g4182"
             transform="matrix(1.7142857,0,0,1.7142857,-30.839285,-12.375017)">
            <g
               inkscape:label="Capa 1"
               id="layer1-1"
               transform="translate(-346.19643,-525.67299)"
               style="display:inline;enable-background:new">
              <g
                 id="layer1-9"
                 inkscape:label="Capa 1"
                 transform="matrix(0.87499998,0,0,0.87499998,50.025937,66.450093)">
                <g
                   transform="matrix(1.1428581,0,0,1.1428581,-57.327415,-75.995025)"
                   id="g4284">
                  <g
                     id="layer1-3"
                     inkscape:label="Capa 1"
                     transform="translate(0.13524268,0.04517549)"
                     style="stroke:none;stroke-width:1.29999995;stroke-miterlimit:4;stroke-dasharray:none;stroke-opacity:1">
                    <circle
                       r="13.999958"
                       cy="531.79791"
                       cx="400.57138"
                       id="path3377"
                       style="opacity:1;fill:url(#linearGradient4181);fill-opacity:1;stroke:none;stroke-width:1.29999995;stroke-miterlimit:4;stroke-dasharray:none;stroke-dashoffset:0;stroke-opacity:1" />
                    <circle
                       style="opacity:1;fill:#5ea5fb;fill-opacity:0;stroke:none;stroke-width:1.29999995;stroke-miterlimit:4;stroke-dasharray:none;stroke-dashoffset:0;stroke-opacity:1"
                       id="circle4174"
                       cx="400.57144"
                       cy="531.79797"
                       r="13.999958" />
                    <circle
                       style="opacity:1;fill:url(#linearGradient3426);fill-opacity:1;stroke:none;stroke-width:1.29999995;stroke-miterlimit:4;stroke-dasharray:none;stroke-dashoffset:0;stroke-opacity:1"
                       id="ellipse4233"
                       cx="400.57138"
                       cy="531.79791"
                       r="0" />
                  </g>
                </g>
              </g>
            </g>
          </g>
          <g
             transform="matrix(0.04860082,0,0,-0.04860082,37.442779,23.865781)"
             id="g132"
             style="fill:#ffffff;fill-opacity:0.85128204">
            <g
               id="g134"
               style="fill:#ffffff;fill-opacity:0.85128204">
              <g
                 id="g140"
                 style="fill:#ffffff;fill-opacity:0.85128204">
                <g
                   id="g142"
                   style="fill:#ffffff;fill-opacity:0.85128204">
                  <path
                     d="m 531,753.019 0,-32.607 0,-43.298 256,-160.648 0,120.009 -256,160.647 0,-44.103 z M 286.643,787 C 260.55,787 239,764.811 239,738.717 l 0,0 0,-38.755 L 499,537.53 499,660.369 295.613,787 l -8.97,0 z M 239,538.837 499,376.404 l 0,124.747 -260,162.432 0,-124.746 z m 292,-20.942 256,-160.647 0,122.838 -256,160.648 0,-122.839 z M 239,383.433 499,221 l 0,47.986 0,32.607 0,38.432 -260,162.433 0,-119.025 z M 531,356.77 725.142,235 l 15.424,0 C 766.659,235 787,257.194 787,283.287 l 0,0 0,37.581 -256,160.647 0,-124.745 z"
                     style="fill:#ffffff;fill-opacity:0.85128204;stroke:none"
                     id="path150"
                     inkscape:connector-curvature="0" />
                </g>
              </g>
            </g>
          </g>
        </g>
      </g>
    </g>
  </g>
</svg>
